docs/.gitbook/assets/icon-print-16@dark.svg

<svg width="32" height="32" viewBox="0 0 16 16" fill="none" xmlns="http://www.w3.org/2000/svg">
<rect x="0" y="0" width="16" height="16" fill="#181c1f"/>
<path fill-rule="evenodd" clip-rule="evenodd" d="M3 1.75C3 1.33579 3.33579 1 3.75 1H12.25C12.6642 1 13 1.33579 13 1.75V4H13.25C14.2165 4 15 4.7835 15 5.75V11.25C15 12.2165 14.2165 13 13.25 13H12V14.25C12 14.6642 11.6642 15 11.25 15H4.75C4.33579 15 4 14.6642 4 14.25V13H2.75C1.7835 13 1 12.2165 1 11.25V5.75C1 4.7835 1.7835 4 2.75 4H3V1.75ZM4.5 4H11.5V2.5H4.5V4ZM4 11.5V9.75C4 9.33579 4.33579 9 4.75 9H11.25C11.6642 9 12 9.33579 12 9.75V11.5H13.25C13.3881 11.5 13.5 11.3881 13.5 11.25V5.75C13.5 5.61193 13.3881 5.5 13.25 5.5H12.25H3.75H2.75C2.61193 5.5 2.5 5.61193 2.5 5.75V11.25C2.5 11.3881 2.61193 11.5 2.75 11.5H4ZM5.5 10.5V12.25V13.5H10.5V12.25V10.5H5.5Z" fill="#fff"/>
</svg>

<svg xmlns="http://www.w3.org/2000/svg" width="32" height="32" fill="none" viewBox="0 0 16 16"><path fill="#181c1f" d="M0 0h16v16H0z"/><path fill="#fff" fill-rule="evenodd" d="M3 1.75A.75.75 0 0 1 3.75 1h8.5a.75.75 0 0 1 .75.75V4h.25c.966 0 1.75.784 1.75 1.75v5.5A1.75 1.75 0 0 1 13.25 13H12v1.25a.75.75 0 0 1-.75.75h-6.5a.75.75 0 0 1-.75-.75V13H2.75A1.75 1.75 0 0 1 1 11.25v-5.5C1 4.784 1.784 4 2.75 4H3zM4.5 4h7V2.5h-7zM4 11.5V9.75A.75.75 0 0 1 4.75 9h6.5a.75.75 0 0 1 .75.75v1.75h1.25a.25.25 0 0 0 .25-.25v-5.5a.25.25 0 0 0-.25-.25H2.75a.25.25 0 0 0-.25.25v5.5c0 .138.112.25.25.25zm1.5-1v3h5v-3z" clip-rule="evenodd"/></svg>
